raw/symbols/rose.svg

<svg width="42" height="42" viewBox="0 0 42 42" fill="none" xmlns="http://www.w3.org/2000/svg">
<path d="M21 41C32.0457 41 41 32.0457 41 21C41 9.9543 32.0457 1 21 1C9.9543 1 1 9.9543 1 21C1 32.0457 9.9543 41 21 41Z" fill="#0293F6"/>
<mask id="mask0_7674_310982" style="mask-type:luminance" maskUnits="userSpaceOnUse" x="7" y="7" width="28" height="28">
<path d="M35 7H7V35H35V7Z" fill="white"/>
</mask>
<g mask="url(#mask0_7674_310982)">
<path fill-rule="evenodd" clip-rule="evenodd" d="M32.1562 12.5563C30.0344 9.84375 26.9281 8.11563 23.4937 8.11563C16.8438 8.11563 11.9656 14.3063 11.9656 21C11.9656 25.6594 15.0719 29.1594 18.5062 29.1594C18.8344 29.1594 19.1406 29.1375 19.4688 29.0719C17.15 27.3875 15.6844 24.325 15.6844 21C15.6844 15.7063 19.2719 11.5719 23.4937 11.5719C28.1094 11.5719 31.3031 16.1438 31.3031 21C31.2812 24.5875 30.0125 28.1531 27.7594 30.7781C25.7906 33.075 23.2531 34.5188 20.4531 34.9781C20.4531 34.9781 20.6938 35 21 35C28.7219 35 35 28.7219 35 21C35 17.8281 33.95 14.8969 32.1562 12.5563ZM30.0344 21C30.0344 16.3406 26.9281 12.8406 23.4937 12.8406C23.1656 12.8406 22.8594 12.8625 22.5312 12.9281C24.85 14.6125 26.3156 17.675 26.3156 21C26.3156 26.2938 22.7281 30.4281 18.5062 30.4281C13.8906 30.4281 10.6969 25.8563 10.6969 21C10.7188 17.4125 11.9875 13.8469 14.2406 11.2219C16.2094 8.925 18.7469 7.48125 21.5469 7.02187C21.5469 7.02187 21.3062 7 21 7C13.2781 7 7 13.2781 7 21C7 24.1719 8.05 27.1031 9.84375 29.4438C11.9656 32.1562 15.0719 33.8625 18.5062 33.8625C25.1562 33.8844 30.0344 27.6938 30.0344 21Z" fill="#F3F3F3"/>
</g>
</svg>

<svg xmlns="http://www.w3.org/2000/svg" width="42" height="42" fill="none"><path fill="#0293F6" d="M21 41c11.046 0 20-8.954 20-20S32.046 1 21 1 1 9.954 1 21s8.954 20 20 20Z"/><mask id="a" width="28" height="28" x="7" y="7" maskUnits="userSpaceOnUse" style="mask-type:luminance"><path fill="#fff" d="M35 7H7v28h28V7Z"/></mask><g mask="url(#a)"><path fill="#F3F3F3" fill-rule="evenodd" d="M32.156 12.556c-2.122-2.712-5.228-4.44-8.662-4.44-6.65 0-11.528 6.19-11.528 12.884 0 4.66 3.106 8.16 6.54 8.16.328 0 .635-.023.963-.088-2.319-1.684-3.785-4.747-3.785-8.072 0-5.294 3.588-9.428 7.81-9.428 4.615 0 7.81 4.572 7.81 9.428-.023 3.587-1.291 7.153-3.545 9.778-1.968 2.297-4.506 3.74-7.306 4.2 0 0 .24.022.547.022 7.722 0 14-6.278 14-14 0-3.172-1.05-6.103-2.844-8.444ZM30.034 21c0-4.66-3.106-8.16-6.54-8.16-.328 0-.635.023-.963.088 2.319 1.684 3.785 4.747 3.785 8.072 0 5.294-3.588 9.428-7.81 9.428-4.615 0-7.81-4.572-7.81-9.428.023-3.587 1.292-7.153 3.545-9.778 1.968-2.297 4.506-3.74 7.306-4.2 0 0-.24-.022-.547-.022-7.722 0-14 6.278-14 14a13.83 13.83 0 0 0 2.844 8.444c2.122 2.712 5.228 4.418 8.662 4.418 6.65.022 11.528-6.168 11.528-12.862Z" clip-rule="evenodd"/></g></svg>
